svg/fluentui-system-icons/ic_fluent_sparkle_32_regular.svg

<svg width="32" height="32" viewBox="0 0 32 32" fill="none" xmlns="http://www.w3.org/2000/svg">
<path d="M3.39466 13.208C3.6481 13.5582 4.00441 13.8206 4.41394 13.9585L6.81453 14.7397C7.38197 14.9298 7.89731 15.2497 8.31969 15.6739C8.43382 15.7869 8.54054 15.9072 8.63916 16.034C8.90545 16.3777 9.11091 16.7645 9.24663 17.1776L10.0386 19.6088C10.1802 20.0157 10.4451 20.3683 10.7963 20.6176C11.1475 20.8669 11.5676 21.0006 11.9982 21C12.4303 21.0018 12.852 20.8679 13.2041 20.6173C13.5568 20.3568 13.8239 19.9971 13.9713 19.584L14.752 17.1821C14.9416 16.6158 15.2596 16.1011 15.6812 15.6784C16.101 15.2575 16.6134 14.9406 17.1774 14.7532L19.6207 13.9585C20.0239 13.8147 20.3728 13.5497 20.6196 13.1999C20.8671 12.8501 21 12.432 21 12.0034C21 11.5748 20.8671 11.1568 20.6196 10.807C20.353 10.4347 19.9735 10.1585 19.5375 10.0191L17.1324 9.24021C16.5664 9.05314 16.0519 8.7363 15.63 8.31497C15.2081 7.89364 14.8905 7.37948 14.7025 6.81351L13.9083 4.37332C13.766 3.96981 13.5018 3.62054 13.1524 3.37383C12.7994 3.13037 12.3808 3 11.9521 3C11.5234 3 11.1048 3.13037 10.7518 3.37383C10.3924 3.62703 10.1229 3.98814 9.98233 4.40483L9.18363 6.85854C8.99531 7.40796 8.68518 7.90761 8.27645 8.32007C7.86773 8.73253 7.37102 9.0471 6.82354 9.24021L4.38469 10.0303C3.97726 10.1744 3.6249 10.4421 3.3767 10.796C3.1285 11.1499 2.99684 11.5725 3.00006 12.0049C3.00328 12.4372 3.14122 12.8578 3.39466 13.208ZM12.0065 19L11.9954 19C11.9807 19 11.9662 18.9954 11.954 18.9868C11.9435 18.9793 11.9351 18.9691 11.9297 18.9571L11.1483 16.5582L11.1467 16.5534C10.9397 15.9233 10.6263 15.3333 10.2201 14.8091L10.2179 14.8062C10.0678 14.6133 9.90555 14.4301 9.73205 14.2578C9.09132 13.6159 8.31015 13.1316 7.45012 12.8433L7.44176 12.8405L5.04937 12.0621C5.03571 12.0568 5.02369 12.0476 5.01487 12.0354C5.00538 12.0223 5.00012 12.0064 5 11.99C4.99988 11.9735 5.00489 11.9576 5.0142 11.9443C5.02181 11.9334 5.03195 11.9249 5.04354 11.9192L7.46448 11.1349L7.4888 11.1263C8.32101 10.8328 9.07594 10.3547 9.69709 9.72784C10.3182 9.10102 10.7895 8.34177 11.0756 7.50702L11.0806 7.49234L11.8786 5.04096C11.8826 5.03067 11.8889 5.02158 11.8968 5.01431C11.9137 5.00493 11.9328 5 11.9521 5C11.9709 5 11.9895 5.00469 12.0061 5.01364C12.0115 5.01884 12.0161 5.02501 12.0194 5.0319L12.8007 7.4325L12.8045 7.44404C13.0907 8.30565 13.5743 9.08851 14.2167 9.7301C14.8592 10.3717 15.6426 10.8543 16.5047 11.1392L18.9213 11.9218L18.9285 11.9241C18.9525 11.9318 18.9738 11.9464 18.9897 11.9663C18.9964 11.9774 19 11.9902 19 12.0034C19 12.0184 18.9954 12.0329 18.9869 12.0449L18.9856 12.0467C18.9781 12.0573 18.9683 12.0657 18.957 12.0713L16.5588 12.8512L16.5465 12.8553C15.6864 13.1412 14.9052 13.6243 14.2651 14.266C13.6254 14.9074 13.1429 15.6883 12.8554 16.5473L12.8527 16.5556L12.0828 18.9243C12.0712 18.951 12.0543 18.9749 12.0331 18.9944C12.0247 18.9981 12.0156 19 12.0065 19ZM25.6533 19.8412C25.7682 20.1833 25.9611 20.4939 26.2168 20.7487C26.4725 21.0035 26.7839 21.1953 27.1265 21.3091L28.7816 21.8483C29.0432 21.9296 29.2818 22.0717 29.4778 22.2631C29.6738 22.4544 29.8217 22.6894 29.9092 22.9489C29.9967 23.2083 30.0214 23.4848 29.9813 23.7557C29.9413 24.0265 29.8375 24.284 29.6785 24.5071C29.4693 24.8016 29.1731 25.0234 28.8315 25.1414L27.159 25.687C26.8154 25.7989 26.5034 25.9912 26.2491 26.2478C25.9938 26.5044 25.801 26.8163 25.6858 27.1593L25.1485 28.8092C25.0283 29.1589 24.8009 29.4619 24.4986 29.6752C24.2085 29.8833 23.8613 29.9967 23.5042 30C23.1434 29.9998 22.7914 29.8878 22.4968 29.6796C22.204 29.4718 21.9829 29.1783 21.8642 28.8395L21.3161 27.1637C21.2049 26.8192 21.0133 26.506 20.7572 26.25C20.5 25.9939 20.1871 25.8005 19.843 25.6849L18.19 25.1501C17.8396 25.0307 17.5362 24.8033 17.3234 24.5006C17.1667 24.2815 17.0632 24.029 17.0212 23.7631C16.9792 23.4971 16.9998 23.225 17.0814 22.9684C17.163 22.7118 17.3033 22.4777 17.4912 22.2848C17.6792 22.0918 17.9095 21.9454 18.164 21.8569L19.8451 21.3091C20.1786 21.1918 20.4809 21 20.729 20.7484C20.9807 20.4914 21.1704 20.1803 21.2836 19.839L21.8187 18.1892C21.9039 17.9313 22.0486 17.6971 22.241 17.5054C22.4334 17.3137 22.6683 17.1698 22.9266 17.0856C23.1849 17.0013 23.4594 16.9789 23.7279 17.0201C23.9965 17.0614 24.2516 17.1652 24.4726 17.3231C24.7676 17.5302 24.9897 17.8249 25.1074 18.1654L25.6533 19.8412ZM26.4959 23.2072C25.8592 22.9957 25.2804 22.639 24.8051 22.1654C24.3298 21.6918 23.9711 21.1141 23.7574 20.478L23.7545 20.4694L23.4675 19.5884L23.1819 20.4689C22.9728 21.0991 22.6226 21.6732 22.1581 22.1476L22.1532 22.1526C21.6915 22.6208 21.1291 22.9776 20.5089 23.1958L20.4869 23.2035L19.582 23.4984L20.4693 23.7854L20.4799 23.789C21.1154 24.0025 21.6932 24.3596 22.1683 24.8327L22.171 24.8354C22.6503 25.3144 23.0092 25.9003 23.218 26.545L23.2194 26.5492L23.5009 27.4098L23.787 26.5313L23.7899 26.5226C24.0028 25.8888 24.3587 25.3126 24.8299 24.8386C25.3078 24.3568 25.8936 23.9959 26.5387 23.7857L27.4047 23.5032L26.4959 23.2072Z" fill="#212121"/>
</svg>

<svg xmlns="http://www.w3.org/2000/svg" width="32" height="32"><path d="M3.395 13.208c.253.35.61.613 1.019.75l2.4.782a3.85 3.85 0 0 1 1.825 1.294c.266.344.472.73.608 1.144l.792 2.43A2.072 2.072 0 0 0 11.999 21a2.06 2.06 0 0 0 1.205-.383c.353-.26.62-.62.767-1.033l.781-2.402c.19-.566.508-1.08.93-1.504a3.81 3.81 0 0 1 1.495-.925l2.444-.794a2.076 2.076 0 0 0 .999-3.152 2.128 2.128 0 0 0-1.082-.788l-2.406-.779a3.825 3.825 0 0 1-2.43-2.426l-.794-2.44a2.064 2.064 0 0 0-.756-1 2.114 2.114 0 0 0-2.4 0 2.07 2.07 0 0 0-.77 1.03L9.184 6.86a3.85 3.85 0 0 1-2.36 2.381l-2.44.79a2.077 2.077 0 0 0-.99 3.178ZM12.007 19h-.012a.072.072 0 0 1-.065-.043l-.782-2.399-.001-.005a5.806 5.806 0 0 0-.927-1.744l-.002-.003a5.853 5.853 0 0 0-2.768-1.963l-.008-.002-2.393-.779A.077.077 0 0 1 5 11.99a.079.079 0 0 1 .044-.07l2.42-.785.025-.009a5.846 5.846 0 0 0 3.587-3.619l.005-.015.798-2.451c.004-.01.01-.02.018-.027a.114.114 0 0 1 .11 0c.005.005.01.011.012.018l.782 2.4.004.012a5.827 5.827 0 0 0 3.7 3.695l2.416.783.008.002a.129.129 0 0 1 .06.042.072.072 0 0 1-.002.079l-.001.002a.077.077 0 0 1-.029.024l-2.398.78-.012.004a5.812 5.812 0 0 0-2.282 1.411 5.868 5.868 0 0 0-1.41 2.281l-.002.009-.77 2.368a.207.207 0 0 1-.05.07.066.066 0 0 1-.026.006Zm13.646.841a2.327 2.327 0 0 0 1.474 1.468l1.655.54a1.732 1.732 0 0 1 .05 3.292l-1.673.546a2.271 2.271 0 0 0-.91.56 2.356 2.356 0 0 0-.563.912l-.538 1.65a1.76 1.76 0 0 1-.65.866 1.73 1.73 0 0 1-.994.325 1.733 1.733 0 0 1-1.64-1.16l-.548-1.676a2.284 2.284 0 0 0-.559-.914 2.362 2.362 0 0 0-.914-.565l-1.653-.535a1.749 1.749 0 0 1-.867-.65 1.732 1.732 0 0 1 .841-2.643l1.681-.548a2.325 2.325 0 0 0 1.439-1.47l.535-1.65a1.732 1.732 0 0 1 2.654-.866c.295.207.517.502.634.842l.546 1.676Zm.843 3.366a4.329 4.329 0 0 1-2.739-2.729l-.003-.009-.287-.88-.285.88c-.21.63-.56 1.204-1.024 1.679l-.005.005a4.326 4.326 0 0 1-1.644 1.043l-.022.007-.905.295.887.287.01.004c.636.213 1.214.57 1.69 1.044l.002.002c.48.48.838 1.065 1.047 1.71l.001.004.282.86.286-.878.003-.008a4.356 4.356 0 0 1 1.04-1.684 4.27 4.27 0 0 1 1.709-1.053l.866-.283-.91-.296Z"/></svg>
